assets/svg/networks/wallet_sei.svg

<svg width="36" height="36" viewBox="0 0 36 36" fill="none" xmlns="http://www.w3.org/2000/svg">
<g clip-path="url(#clip0_52314_201698)">
<rect width="36" height="36" rx="10" fill="url(#paint0_linear_52314_201698)"/>
<g clip-path="url(#clip1_52314_201698)">
<path d="M28.1986 24.3015C29.5066 22.202 30.1298 19.7477 29.9821 17.2784C29.8344 14.809 28.923 12.4466 27.3741 10.5181C26.774 10.6681 26.3923 11.0054 25.7778 11.5384C25.725 11.5829 25.665 11.6285 25.6122 11.6885C24.6761 12.6088 23.4167 13.1256 22.1041 13.1278C21.3011 13.1278 20.6794 12.9778 20.1394 12.7149C19.6749 12.4748 19.3292 12.1603 19.0976 11.9502L19.0448 11.8986C18.7976 11.6729 18.6403 11.5456 18.4147 11.4484C18.0331 11.2985 17.6239 11.2318 17.2145 11.2527C16.3612 11.2527 15.4766 11.6585 14.6521 12.2875C13.9776 12.8073 13.3859 13.4266 12.8975 14.1242L11.0228 12.8817C11.6451 11.9756 12.4066 11.1734 13.2791 10.5049C14.3922 9.58805 15.7749 9.06102 17.2157 9.00432C18.0846 9.00432 18.7676 9.13997 19.3376 9.39446C19.9065 9.65015 20.2894 9.99468 20.5594 10.2348C20.8439 10.4965 20.9795 10.6093 21.1595 10.7065C21.3239 10.7894 21.5868 10.8794 22.1041 10.8794C23.0042 10.8794 23.4987 10.5349 24.1276 9.97907L24.3232 9.81461C24.7366 9.42836 25.1915 9.08898 25.6794 8.80264C24.0213 7.41447 22.0194 6.4995 19.8848 6.15419C17.7502 5.80889 15.562 6.04604 13.5509 6.84064C11.5398 7.63525 9.78029 8.95787 8.4579 10.6691C7.13551 12.3803 6.29922 14.4166 6.03721 16.5635C6.72353 16.2768 7.45977 16.1287 8.20354 16.1277C9.38769 16.105 10.5413 16.5041 11.4584 17.2537L11.4872 17.2753C11.8257 17.5154 12.0573 17.6811 12.343 17.8011C12.6046 17.9128 12.9431 18.0028 13.4675 18.0028C14.3437 18.0028 14.9138 17.5983 15.7767 16.9308L15.8283 16.8864C16.6528 16.2406 17.7702 15.3786 19.4721 15.3786C20.8739 15.3786 22.2685 16.1061 23.3403 16.8408C24.2932 17.5022 25.1693 18.2693 25.9495 19.1276L24.2632 20.6282C23.6046 19.901 22.8649 19.2518 22.0585 18.6931C21.0839 18.0256 20.1694 17.6283 19.4721 17.6283C18.5875 17.6283 18.0174 18.0328 17.1557 18.7003L17.1029 18.7459C16.2784 19.3905 15.161 20.2524 13.4591 20.2524C12.7732 20.2627 12.0924 20.1328 11.4584 19.8707C10.9328 19.645 10.5211 19.3449 10.1982 19.1204L10.1754 19.106C9.91079 18.8998 9.62422 18.7235 9.32091 18.5802C9.05087 18.4686 8.71362 18.3785 8.19634 18.3785C7.3346 18.3785 6.57729 18.7303 6 19.1432C6.22207 21.5093 7.14615 23.755 8.65361 25.592C9.05087 25.1718 9.52374 24.7289 10.041 24.3171C11.03 23.514 12.3202 22.7049 13.6776 22.5165C14.4304 22.3952 15.2022 22.4892 15.9039 22.7878C16.5112 23.0567 16.9841 23.448 17.3441 23.7625L17.4257 23.8369C18.1603 24.4672 18.4903 24.7517 19.0976 24.7517C19.7937 24.7517 20.2738 24.43 20.9711 23.8754L21.1067 23.7625C21.7428 23.2595 22.6814 22.5021 23.9848 22.5021C24.5632 22.5021 25.1477 22.6677 25.6566 22.8694C26.1823 23.0723 26.7068 23.3568 27.2012 23.6497C27.5469 23.8597 27.8913 24.0842 28.2058 24.3099L28.1986 24.3015ZM26.834 26.101C26.5795 25.9209 26.3095 25.7408 26.0251 25.5752C25.6441 25.335 25.2424 25.1293 24.8249 24.9605C24.5576 24.8393 24.2705 24.7681 23.9776 24.7505C23.5059 24.7505 23.1686 24.9978 22.3813 25.628C21.6684 26.1982 20.6494 27.0001 19.0976 27.0001C17.613 27.0001 16.6612 26.1598 16.0383 25.6052L15.8655 25.4551C15.5295 25.1634 15.2654 24.9678 14.9966 24.8549C14.6808 24.717 14.3314 24.6752 13.992 24.7349C13.2419 24.8477 12.343 25.3507 11.45 26.0625C11.0256 26.4157 10.6201 26.7912 10.2354 27.1874C12.4002 29.0062 15.1374 30.0023 17.9646 30C19.6327 30.0023 21.283 29.6567 22.8101 28.9854C24.3372 28.3141 25.7077 27.3317 26.834 26.101Z" fill="white"/>
</g>
</g>
<defs>
<linearGradient id="paint0_linear_52314_201698" x1="17.9462" y1="0.00662984" x2="17.9462" y2="36" gradientUnits="userSpaceOnUse">
<stop stop-color="#90305C"/>
<stop offset="1" stop-color="#DF3C41"/>
</linearGradient>
<clipPath id="clip0_52314_201698">
<rect width="36" height="36" fill="white"/>
</clipPath>
<clipPath id="clip1_52314_201698">
<rect width="24" height="24" fill="white" transform="translate(6 6)"/>
</clipPath>
</defs>
</svg>

<svg xmlns="http://www.w3.org/2000/svg" width="36" height="36" fill="none"><g clip-path="url(#a)"><rect width="36" height="36" fill="url(#b)" rx="10"/><g clip-path="url(#c)"><path fill="#fff" d="M28.199 24.302a11.93 11.93 0 0 0-.825-13.784c-.6.15-.982.487-1.596 1.02-.053.045-.113.09-.166.15a5.02 5.02 0 0 1-3.508 1.44c-.803 0-1.425-.15-1.965-.413-.464-.24-.81-.555-1.041-.765l-.053-.051c-.247-.226-.405-.353-.63-.45a2.9 2.9 0 0 0-1.2-.196c-.854 0-1.738.406-2.563 1.034a8.4 8.4 0 0 0-1.754 1.837l-1.875-1.242a10.4 10.4 0 0 1 2.256-2.377 6.6 6.6 0 0 1 3.937-1.5c.869 0 1.552.135 2.122.39s.951.6 1.221.84c.285.261.42.374.6.472.165.082.428.172.945.172.9 0 1.395-.344 2.024-.9l.195-.164a7.7 7.7 0 0 1 1.356-1.012 12.016 12.016 0 0 0-19.642 7.76 5.6 5.6 0 0 1 2.167-.435 5 5 0 0 1 3.254 1.126l.03.021c.338.24.57.406.855.526.262.112.6.202 1.124.202.877 0 1.447-.405 2.31-1.072l.051-.045c.825-.645 1.942-1.507 3.644-1.507 1.402 0 2.796.727 3.868 1.462a15.4 15.4 0 0 1 2.61 2.287l-1.687 1.5a12.8 12.8 0 0 0-2.205-1.935c-.974-.667-1.889-1.065-2.586-1.065-.885 0-1.455.405-2.316 1.072l-.053.046c-.825.645-1.942 1.506-3.644 1.506a5 5 0 0 1-2-.381c-.526-.226-.938-.526-1.26-.75l-.024-.015a4.6 4.6 0 0 0-.854-.526c-.27-.111-.607-.201-1.125-.201-.861 0-1.619.351-2.196.764a11.92 11.92 0 0 0 2.654 6.449c.397-.42.87-.863 1.387-1.275.989-.803 2.28-1.612 3.637-1.8a4.04 4.04 0 0 1 2.226.27c.607.27 1.08.661 1.44.976l.082.074c.734.63 1.064.915 1.672.915.696 0 1.176-.322 1.873-.877l.136-.113c.636-.503 1.574-1.26 2.878-1.26.578 0 1.163.166 1.672.367.525.203 1.05.488 1.544.78.346.21.69.435 1.005.66zM26.834 26.1c-.255-.18-.524-.36-.809-.526a7.6 7.6 0 0 0-1.2-.614 2.4 2.4 0 0 0-.847-.21c-.472 0-.81.247-1.597.877-.713.57-1.732 1.372-3.283 1.372-1.485 0-2.437-.84-3.06-1.395l-.172-.15c-.336-.292-.6-.487-.87-.6a1.75 1.75 0 0 0-1.004-.12c-.75.113-1.649.616-2.542 1.328q-.637.53-1.215 1.124A12 12 0 0 0 17.965 30a12 12 0 0 0 8.869-3.899"/></g></g><defs><clipPath id="a"><path fill="#fff" d="M0 0h36v36H0z"/></clipPath><clipPath id="c"><path fill="#fff" d="M6 6h24v24H6z"/></clipPath><linearGradient id="b" x1="17.946" x2="17.946" y1=".007" y2="36" gradientUnits="userSpaceOnUse"><stop stop-color="#90305C"/><stop offset="1" stop-color="#DF3C41"/></linearGradient></defs></svg>
